X: 201
M: 6/8
L: 1/8
K: D
d2F FGF | ABA AFA | d2F FGF | ABA f2e |\
d2F FGF | ABA AGF | EFE EFA | B3 A2 :|
|: B |\
dfa afd | cea ecA | dfa afd | (g3 f2)g |\
agf bag | agf ede | fdB AFA | B3 A2 :|


